X:261
T:Kentucky Waltz
C:Bill Monroe - Arr. Roland White
N:
R:bluegrass
L:1/8
Q:1/4=120
M:3/4
K:D
z3A Bc | (3"D"[dF][dF][dF] [d2F2] cB | (3[AD][AD][AD] [A2D2] FD | (3[AF][AF][AF] (3[AF][AF][AF] (3[AF][AF][AF] | 
[A2F2] [AF]A Bc | (3[dF][dF][dF] [d2F2] cB | (3[AD][AD][AD] [A2D2] FD | "A"(3[EC][EC][EC] (3[EC][EC][EC] (3[EC][EC][EC] | 
(3[EC][EC][EC] [E2C2] AB | (3[ec][ec][ec] [e2c2] cB | (3[eA][eA][eA] [e2A2] GE | 
(3[EC][EC][EC] (3[EC][EC][EC] (3[EC][EC][EC] | [E4C4] CB, | A,2 C2 E2 | "A7"A2 [c3E3]B | 
"D"(3[dA][dA][dA] (3[dA][dA][dA] (3[dA][dA][dA] | (3[dA][dA][dA] [dA]f =fe | (3[fd][fd][fd] [f2d2] FB | 
(3[fAD][fAD][fAD] [f2A2D2] FD | (3[AF][AF][AF] (3[AF][AF][AF] (3[AF][AF][AF] | 
[A4F4] de | fa a2 f2 | (3"A"[ec][ec][ec] [e2c2] fe | (3"G"[gd][gd][gd] (3[gd][gd][gd] (3[gd][gd][gd] | 
[g4d4] (3B=cd | (3[gd][gd][gd] [g2d2] d2 | e2 d2 e2 | "D"f2 d2 B2 | (3"B7"[fA][fA][fA] [f2A2] A^A | 
"E7"[e/B/][e/B/][e/B/][e/B/] [e2B2] B=c | (3"A7"[ec][ec][ec] [e2c2] f2 | (3"D"[fd][fd][fd] (3[fd][fd][fd] (3[fd][fd][fd] | 
[f6d6] | 


